src/assets/icons/heat-dissipation.svg

<svg width="22" height="22" viewBox="0 0 22 22" fill="none" xmlns="http://www.w3.org/2000/svg">
<g clip-path="url(#clip0_5964_45890)">
<path fill-rule="evenodd" clip-rule="evenodd" d="M1 18.3416C1.06042 18.2577 1.12837 18.1776 1.20385 18.1021L2 17.3059V4.91193L1 3.91193L1 18.3416ZM3.76453 21H18.0882C18.0834 20.9953 18.0787 20.9906 18.0739 20.9859L17.0881 20H4.78508L3.94343 20.8417C3.88634 20.8987 3.82657 20.9515 3.76453 21ZM20 17.4328L20.8135 18.2463C20.8818 18.3146 20.944 18.3868 21 18.4621V3.78508L20 4.78508V17.4328ZM17.3059 2L18.3059 1L3.54622 1C3.60898 1.0489 3.66942 1.1022 3.72712 1.15991L4.56722 2H17.3059Z" fill="white"/>
<path fill-rule="evenodd" clip-rule="evenodd" d="M18.3243 5.76889C18.5227 6.04628 18.7058 6.33541 18.8723 6.63504L21.2572 4.25019C22.2335 3.27388 22.2335 1.69097 21.2572 0.714655C20.2809 -0.261656 18.698 -0.261656 17.7216 0.714655L15.3287 3.10762C15.6294 3.27291 15.9197 3.45489 16.1982 3.65231L18.4288 1.42176C19.0145 0.835975 19.9643 0.835975 20.5501 1.42176C21.1359 2.00755 21.1359 2.9573 20.5501 3.54308L18.3243 5.76889ZM18.8843 15.3437C18.7185 15.6439 18.5361 15.9337 18.3382 16.2118L20.5075 18.3811C21.0933 18.9669 21.0933 19.9167 20.5075 20.5025C19.9217 21.0882 18.972 21.0882 18.3862 20.5025L16.2178 18.334C15.9399 18.5321 15.6503 18.7147 15.3503 18.8807L17.6791 21.2096C18.6554 22.1859 20.2383 22.1859 21.2146 21.2096C22.1909 20.2332 22.1909 18.6503 21.2146 17.674L18.8843 15.3437ZM6.63479 18.8726C6.33516 18.7061 6.04602 18.523 5.76864 18.3245L3.65888 20.4343C3.07309 21.0201 2.12335 21.0201 1.53756 20.4343C0.951774 19.8485 0.951774 18.8987 1.53756 18.313L3.65205 16.1985C3.45464 15.9199 3.27266 15.6297 3.10737 15.3289L0.830453 17.6058C-0.145857 18.5822 -0.145857 20.1651 0.830453 21.1414C1.80676 22.1177 3.38968 22.1177 4.36599 21.1414L6.63479 18.8726ZM3.11927 6.64974C3.28527 6.34966 3.46792 6.06008 3.66596 5.78222L1.495 3.61126C0.909217 3.02548 0.909217 2.07573 1.495 1.48994C2.08079 0.904156 3.03054 0.904156 3.61632 1.48994L5.78818 3.66179C6.06625 3.46395 6.35605 3.28151 6.65633 3.11574L4.32343 0.782835C3.34712 -0.193476 1.76421 -0.193475 0.787897 0.782835C-0.188413 1.75915 -0.188414 3.34206 0.787896 4.31837L3.11927 6.64974Z" fill="white"/>
<path d="M13.5 6.5C13.5 6.72936 13.4104 7.04049 13.2212 7.42033C13.0361 7.79204 12.7765 8.18879 12.4861 8.57795C11.7325 9.58773 10.2675 9.58773 9.51389 8.57795C9.22346 8.18879 8.96387 7.79204 8.77878 7.42033C8.58964 7.04049 8.5 6.72936 8.5 6.5C8.5 5.82332 8.76643 5.34606 9.18366 5.02489C9.61638 4.69181 10.2493 4.5 11 4.5C11.7507 4.5 12.3836 4.69181 12.8163 5.02489C13.2336 5.34606 13.5 5.82332 13.5 6.5Z" stroke="white"/>
<path d="M13.5 15.5C13.5 15.2706 13.4104 14.9595 13.2212 14.5797C13.0361 14.208 12.7765 13.8112 12.4861 13.422C11.7325 12.4123 10.2675 12.4123 9.51389 13.422C9.22346 13.8112 8.96387 14.208 8.77878 14.5797C8.58964 14.9595 8.5 15.2706 8.5 15.5C8.5 16.1767 8.76643 16.6539 9.18366 16.9751C9.61638 17.3082 10.2493 17.5 11 17.5C11.7507 17.5 12.3836 17.3082 12.8163 16.9751C13.2336 16.6539 13.5 16.1767 13.5 15.5Z" stroke="white"/>
<path d="M15.5 13.5C15.2706 13.5 14.9595 13.4104 14.5797 13.2212C14.208 13.0361 13.8112 12.7765 13.422 12.4861C12.4123 11.7325 12.4123 10.2675 13.422 9.51389C13.8112 9.22346 14.208 8.96387 14.5797 8.77878C14.9595 8.58964 15.2706 8.5 15.5 8.5C16.1767 8.5 16.6539 8.76643 16.9751 9.18366C17.3082 9.61638 17.5 10.2493 17.5 11C17.5 11.7507 17.3082 12.3836 16.9751 12.8163C16.6539 13.2336 16.1767 13.5 15.5 13.5Z" stroke="white"/>
<path d="M6.5 13.5C6.72936 13.5 7.04049 13.4104 7.42033 13.2212C7.79204 13.0361 8.18879 12.7765 8.57795 12.4861C9.58773 11.7325 9.58773 10.2675 8.57795 9.51389C8.18879 9.22346 7.79204 8.96387 7.42033 8.77878C7.04049 8.58964 6.72936 8.5 6.5 8.5C5.82332 8.5 5.34606 8.76643 5.02489 9.18366C4.69181 9.61638 4.5 10.2493 4.5 11C4.5 11.7507 4.69181 12.3836 5.02489 12.8163C5.34606 13.2336 5.82332 13.5 6.5 13.5Z" stroke="white"/>
<path fill-rule="evenodd" clip-rule="evenodd" d="M11 19C15.4183 19 19 15.4183 19 11C19 6.58172 15.4183 3 11 3C6.58172 3 3 6.58172 3 11C3 15.4183 6.58172 19 11 19ZM11 20C15.9706 20 20 15.9706 20 11C20 6.02944 15.9706 2 11 2C6.02944 2 2 6.02944 2 11C2 15.9706 6.02944 20 11 20ZM11 17C14.3137 17 17 14.3137 17 11C17 7.68629 14.3137 5 11 5C7.68629 5 5 7.68629 5 11C5 14.3137 7.68629 17 11 17ZM11 18C14.866 18 18 14.866 18 11C18 7.13401 14.866 4 11 4C7.13401 4 4 7.13401 4 11C4 14.866 7.13401 18 11 18ZM12 11C12 11.5523 11.5523 12 11 12C10.4477 12 10 11.5523 10 11C10 10.4477 10.4477 10 11 10C11.5523 10 12 10.4477 12 11ZM13 11C13 12.1046 12.1046 13 11 13C9.89543 13 9 12.1046 9 11C9 9.89543 9.89543 9 11 9C12.1046 9 13 9.89543 13 11Z" fill="white"/>
<circle cx="2.5" cy="2.5" r="0.5" fill="white"/>
<circle cx="2.5" cy="19.5" r="0.5" fill="white"/>
<circle cx="19.5" cy="19.5" r="0.5" fill="white"/>
<circle cx="19.5" cy="2.5" r="0.5" fill="white"/>
</g>
<defs>
<clipPath id="clip0_5964_45890">
<rect width="22" height="22" fill="white"/>
</clipPath>
</defs>
</svg>

<svg width="22" height="22" fill="none" xmlns="http://www.w3.org/2000/svg"><g clip-path="url(#prefix__a)"><path fill-rule="evenodd" clip-rule="evenodd" d="M1 18.342q.09-.126.204-.24L2 17.306V4.912l-1-1zM3.765 21h14.323l-.014-.014-.986-.986H4.785l-.842.842q-.085.086-.178.158M20 17.433l.814.813q.102.103.186.216V3.785l-1 1zM17.306 2l1-1H3.546q.094.073.181.16l.84.84z" fill="#fff"/><path fill-rule="evenodd" clip-rule="evenodd" d="M18.324 5.769q.299.416.548.866l2.385-2.385A2.5 2.5 0 1 0 17.722.715l-2.393 2.393q.45.248.87.544l2.23-2.23a1.5 1.5 0 1 1 2.121 2.121zm.56 9.575q-.249.45-.546.868l2.17 2.17a1.5 1.5 0 0 1-2.122 2.12l-2.168-2.168q-.418.297-.868.547l2.33 2.329a2.5 2.5 0 1 0 3.535-3.536zm-12.25 3.529q-.449-.25-.865-.549l-2.11 2.11a1.5 1.5 0 1 1-2.121-2.121l2.114-2.114a9 9 0 0 1-.545-.87L.83 17.606a2.5 2.5 0 0 0 3.536 3.535zM3.12 6.65q.25-.45.547-.868l-2.171-2.17A1.5 1.5 0 0 1 3.616 1.49l2.172 2.172q.417-.297.868-.546L4.323.783A2.5 2.5 0 1 0 .788 4.318z" fill="#fff"/><path d="M13.5 6.5c0 .23-.09.54-.279.92a8 8 0 0 1-.735 1.158 1.837 1.837 0 0 1-2.972 0 8 8 0 0 1-.735-1.158c-.19-.38-.279-.69-.279-.92 0-.677.266-1.154.684-1.475C9.616 4.692 10.249 4.5 11 4.5c.75 0 1.384.192 1.816.525.418.321.684.798.684 1.475ZM13.5 15.5c0-.23-.09-.54-.279-.92a8 8 0 0 0-.735-1.158 1.837 1.837 0 0 0-2.972 0c-.29.39-.55.786-.735 1.158-.19.38-.279.69-.279.92 0 .677.266 1.154.684 1.475.432.333 1.065.525 1.816.525.75 0 1.384-.192 1.816-.525.418-.321.684-.798.684-1.475ZM15.5 13.5c-.23 0-.54-.09-.92-.279a8 8 0 0 1-1.158-.735 1.837 1.837 0 0 1 0-2.972c.39-.29.786-.55 1.158-.735.38-.19.69-.279.92-.279.677 0 1.154.266 1.475.684.333.432.525 1.065.525 1.816 0 .75-.192 1.384-.525 1.816-.321.418-.798.684-1.475.684ZM6.5 13.5c.23 0 .54-.09.92-.279a8 8 0 0 0 1.158-.735 1.837 1.837 0 0 0 0-2.972 8 8 0 0 0-1.158-.735c-.38-.19-.69-.279-.92-.279-.677 0-1.154.266-1.475.684C4.692 9.616 4.5 10.249 4.5 11c0 .75.192 1.384.525 1.816.321.418.798.684 1.475.684Z" stroke="#fff"/><path fill-rule="evenodd" clip-rule="evenodd" d="M11 19a8 8 0 1 0 0-16 8 8 0 0 0 0 16m0 1a9 9 0 1 0 0-18 9 9 0 0 0 0 18m0-3a6 6 0 1 0 0-12 6 6 0 0 0 0 12m0 1a7 7 0 1 0 0-14 7 7 0 0 0 0 14m1-7a1 1 0 1 1-2 0 1 1 0 0 1 2 0m1 0a2 2 0 1 1-4 0 2 2 0 0 1 4 0" fill="#fff"/><circle cx="2.5" cy="2.5" r=".5" fill="#fff"/><circle cx="2.5" cy="19.5" r=".5" fill="#fff"/><circle cx="19.5" cy="19.5" r=".5" fill="#fff"/><circle cx="19.5" cy="2.5" r=".5" fill="#fff"/></g><defs><clipPath id="prefix__a"><path fill="#fff" d="M0 0h22v22H0z"/></clipPath></defs></svg>
